Newaita-dark/apps/48/com.github.plugarut.pwned-checker.svg

<svg height="48" viewBox="0 0 48 48" width="48" xmlns="http://www.w3.org/2000/svg" xmlns:xlink="http://www.w3.org/1999/xlink"><linearGradient id="a"><stop offset="0" stop-opacity=".313726"/><stop offset=".222222" stop-opacity=".27451"/><stop offset="1" stop-opacity="0"/></linearGradient><radialGradient id="b" cx="450.908936" cy="189.579361" gradientTransform="matrix(.00000026 -.117199 -.210958 -.00000015 73.234562 95.392996)" gradientUnits="userSpaceOnUse" r="21.166656" xlink:href="#a"/><radialGradient id="c" cx="450.908936" cy="189.579361" gradientTransform="matrix(-.00000026 .117199 .210958 .00000015 -25.60501 -11.291221)" gradientUnits="userSpaceOnUse" r="21.166656" xlink:href="#a"/><radialGradient id="d" cx="450.908936" cy="189.579361" gradientTransform="matrix(-.00000026 -.117199 .210958 -.00000015 -25.60501 95.392996)" gradientUnits="userSpaceOnUse" r="21.166656" xlink:href="#a"/><radialGradient id="e" cx="450.908936" cy="189.579361" gradientTransform="matrix(.00000026 .117199 -.210958 .00000015 73.234559 -11.291222)" gradientUnits="userSpaceOnUse" r="21.166656" xlink:href="#a"/><linearGradient id="f" gradientTransform="matrix(.400801 0 0 .074923 -78.518994 24.955063)" gradientUnits="userSpaceOnUse" x1="255.322968" x2="255.323044" y1="228.178589" y2="254.666656"><stop offset="0" stop-opacity=".27451"/><stop offset="1" stop-opacity="0"/></linearGradient><linearGradient id="g" gradientUnits="userSpaceOnUse" x1="23.814786" x2="23.814786" y1="42.0509015" y2="22.20524656251"><stop offset="0" stop-color="#546e7a"/><stop offset="1" stop-color="#607d8b"/></linearGradient><linearGradient id="h" gradientUnits="userSpaceOnUse" x1="23.814816" x2="23.814816" y1="42.05096580616" y2="4.34417266504"><stop offset="0" stop-color="#bdbdbd"/><stop offset="1" stop-color="#eee"/></linearGradient><linearGradient id="i" gradientUnits="userSpaceOnUse" x1="23.814786" x2="23.814786" y1="42.0509015" y2="4.3441580001"><stop offset="0" stop-color="#9ccc65"/><stop offset="1" stop-color="#aed581"/></linearGradient><path d="m33.738281 42.050781h3.96875v-1.984375h-3.96875zm0 0" fill="url(#b)"/><path d="m13.890625 42.050781h-3.96875v1.984375h3.96875zm0 0" fill="url(#c)"/><path d="m13.890625 42.050781h-3.96875v-1.984375h3.96875zm0 0" fill="url(#d)"/><path d="m33.738281 42.050781h3.96875v1.984375h-3.96875zm0 0" fill="url(#e)"/><path d="m13.890625 42.054688h19.847656v1.980468h-19.847656zm0 0" fill="url(#f)"/><path d="m11.90625 22.207031h23.816406c1.09375 0 1.984375.886719 1.984375 1.984375v15.875c0 1.097656-.890625 1.984375-1.984375 1.984375h-23.816406c-1.09375 0-1.984375-.886719-1.984375-1.984375v-15.875c0-1.097656.890625-1.984375 1.984375-1.984375zm0 0" fill="url(#g)"/><path d="m23.816406 4.34375c-6.046875 0-10.917968 4.867188-10.917968 10.914062v6.949219h2.976562v-6.949219c0-4.394531 3.542969-7.9375 7.941406-7.9375 4.394532 0 7.9375 3.542969 7.9375 7.9375v6.949219h2.976563v-6.949219c0-6.046874-4.867188-10.914062-10.914063-10.914062zm0 0" fill="url(#h)"/><path d="m23.816406 4.34375c-6.046875 0-10.917968 4.867188-10.917968 10.914062v6.949219h2.976562v-6.949219c0-4.394531 3.542969-7.9375 7.941406-7.9375 4.394532 0 7.9375 3.542969 7.9375 7.9375v6.949219h2.976563v-6.949219c0-6.046874-4.867188-10.914062-10.914063-10.914062zm0 0" fill="#cfcfcf"/><path d="m23.816406 4.34375c-6.046875 0-10.917968 4.867188-10.917968 10.914062v.496094c0-6.046875 4.871093-10.914062 10.917968-10.914062s10.914063 4.867187 10.914063 10.914062v-.496094c0-6.046874-4.867188-10.914062-10.914063-10.914062zm0 0" fill="#fff" fill-opacity=".784314"/><path d="m23.816406 6.824219c-4.398437 0-7.941406 3.542969-7.941406 7.9375v.496093c0-4.394531 3.542969-7.9375 7.941406-7.9375 4.394532 0 7.9375 3.542969 7.9375 7.9375v-.496093c0-4.394531-3.542968-7.9375-7.9375-7.9375zm-10.917968 14.886719v.496093h2.976562v-.496093zm18.855468 0v.496093h2.976563v-.496093zm0 0" fill-opacity=".235294"/><path d="m960.065849 175.101398c-243.756263 0-440.115474 196.201747-440.115474 439.958009v280.130744h119.988548v-280.130744c0-177.148446 142.821014-319.969461 320.126926-319.969461 177.148447 0 319.969461 142.821015 319.969461 319.969461v280.130744h119.988548v-280.130744c0-243.756262-196.201746-439.958009-439.958009-439.958009zm0 0" fill="none" stroke="#212121" stroke-linecap="round" stroke-linejoin="round" stroke-width="11.338583" transform="scale(.0248071)"/><path d="m11.90625 42.050781c-1.097656 0-1.984375-.886719-1.984375-1.984375v-.992187c0 1.097656.886719 1.984375 1.984375 1.984375h23.816406c1.097656 0 1.984375-.886719 1.984375-1.984375v.992187c0 1.097656-.886719 1.984375-1.984375 1.984375zm0 0" fill-opacity=".235294"/><path d="m11.90625 22.207031c-1.097656 0-1.984375.882813-1.984375 1.984375v.992188c0-1.101563.886719-1.984375 1.984375-1.984375h23.816406c1.097656 0 1.984375.882812 1.984375 1.984375v-.992188c0-1.101562-.886719-1.984375-1.984375-1.984375zm0 0" fill="#fff" fill-opacity=".392157"/><path d="m11.90625 22.066406c-1.171875 0-2.125.949219-2.125 2.125v15.875c0 1.175782.953125 2.125 2.125 2.125h23.816406c1.175782 0 2.125-.949218 2.125-2.125v-15.875c0-1.175781-.949218-2.125-2.125-2.125zm0 .28125h23.816406c1.023438 0 1.84375.816406 1.84375 1.84375v15.875c0 1.023438-.820312 1.84375-1.84375 1.84375h-23.816406c-1.023438 0-1.84375-.820312-1.84375-1.84375v-15.875c0-1.027344.820312-1.84375 1.84375-1.84375zm0 0" fill="#212121"/><path d="m37.816406 15.25c-.652344-.03125-1.277344.261719-1.667968.78125l-12.589844 16.1875-8.34375-7.511719c-.523438-.484375-1.265625-.648437-1.945313-.429687-.675781.214844-1.183593.78125-1.328125 1.476562-.148437.699219.09375 1.417969.628906 1.890625l9.921876 8.929688c.410156.367187.949218.546875 1.496093.496093.546875-.046874 1.050781-.320312 1.386719-.753906l13.890625-17.859375c.464844-.582031.5625-1.371093.257813-2.050781-.304688-.675781-.964844-1.125-1.707032-1.15625zm0 0" fill="url(#i)"/><path d="m37.816406 15.25c-.652344-.03125-1.277344.261719-1.667968.78125l-12.589844 16.1875-8.34375-7.511719c-.628906-.578125-1.558594-.6875-2.304688-.273437-.746094.417968-1.136718 1.265625-.972656 2.105468.136719-.703124.640625-1.277343 1.320312-1.5.679688-.226562 1.429688-.0625 1.957032.421876l8.34375 7.511718 12.589844-16.1875c.390624-.519531 1.015624-.8125 1.667968-.78125.910156.042969 1.671875.703125 1.84375 1.597656.109375-.5625-.03125-1.148437-.382812-1.597656-.355469-.453125-.890625-.730468-1.460938-.753906zm0 0" fill="#fff" fill-opacity=".392157"/><path d="m36.292969 22.289062-10.917969 14.039063c-.335938.433594-.839844.707031-1.386719.753906-.546875.050781-1.085937-.132812-1.496093-.5l-9.921876-8.929687c-.242187-.214844-.429687-.484375-.542968-.789063-.289063.769531-.074219 1.636719.542968 2.179688l9.921876 8.929687c.410156.367188.949218.546875 1.496093.5.546875-.050781 1.050781-.324218 1.386719-.753906l11.671875-15.007812c-.214844-.191407-.46875-.339844-.753906-.421876zm0 0" fill-opacity=".235294"/><path d="m403.336483-52.348866c-6.957669-.333301-13.623699 2.7914-17.789968 8.332538l-134.278843 172.650179-88.991502-80.117349c-5.5828-5.166173-13.498711-6.916006-20.748019-4.582896-7.207645 2.291448-12.623794 8.332538-14.165314 15.748497-1.583182 7.457621.999905 15.123555 6.707693 20.164741l105.823228 95.240904c4.374582 3.916293 10.124033 5.832777 15.956809 5.291162 5.832777-.499952 11.207264-3.416341 14.790255-8.040899l148.152519-190.48181c4.957859-6.20774 5.999427-14.623603 2.749737-21.872911-3.24969-7.207645-10.290684-11.998854-18.206595-12.332156zm0 0" fill="none" stroke="#212121" stroke-linecap="round" stroke-linejoin="round" stroke-width="3" transform="matrix(.093759 0 0 .093759 0 20.158175)"/></svg>

<?xml version="1.0" encoding="UTF-8"?>
<svg xmlns="http://www.w3.org/2000/svg" xmlns:xlink="http://www.w3.org/1999/xlink" width="48px" height="48px" viewBox="0 0 48 48" version="1.1">
<defs>
<radialGradient id="radial0" gradientUnits="userSpaceOnUse" cx="450.908936" cy="189.579361" fx="450.908936" fy="189.579361" r="21.166656" gradientTransform="matrix(0.000000261256,-0.117199,-0.210958,-0.000000152308,73.234562,95.392996)">
<stop offset="0" style="stop-color:rgb(0%,0%,0%);stop-opacity:0.313726;"/>
<stop offset="0.222222" style="stop-color:rgb(0%,0%,0%);stop-opacity:0.27451;"/>
<stop offset="1" style="stop-color:rgb(0%,0%,0%);stop-opacity:0;"/>
</radialGradient>
<radialGradient id="radial1" gradientUnits="userSpaceOnUse" cx="450.908936" cy="189.579361" fx="450.908936" fy="189.579361" r="21.166656" gradientTransform="matrix(-0.000000261256,0.117199,0.210958,0.000000152308,-25.60501,-11.291221)">
<stop offset="0" style="stop-color:rgb(0%,0%,0%);stop-opacity:0.313726;"/>
<stop offset="0.222222" style="stop-color:rgb(0%,0%,0%);stop-opacity:0.27451;"/>
<stop offset="1" style="stop-color:rgb(0%,0%,0%);stop-opacity:0;"/>
</radialGradient>
<radialGradient id="radial2" gradientUnits="userSpaceOnUse" cx="450.908936" cy="189.579361" fx="450.908936" fy="189.579361" r="21.166656" gradientTransform="matrix(-0.000000261256,-0.117199,0.210958,-0.000000152308,-25.60501,95.392996)">
<stop offset="0" style="stop-color:rgb(0%,0%,0%);stop-opacity:0.313726;"/>
<stop offset="0.222222" style="stop-color:rgb(0%,0%,0%);stop-opacity:0.27451;"/>
<stop offset="1" style="stop-color:rgb(0%,0%,0%);stop-opacity:0;"/>
</radialGradient>
<radialGradient id="radial3" gradientUnits="userSpaceOnUse" cx="450.908936" cy="189.579361" fx="450.908936" fy="189.579361" r="21.166656" gradientTransform="matrix(0.000000261256,0.117199,-0.210958,0.000000152308,73.234559,-11.291222)">
<stop offset="0" style="stop-color:rgb(0%,0%,0%);stop-opacity:0.313726;"/>
<stop offset="0.222222" style="stop-color:rgb(0%,0%,0%);stop-opacity:0.27451;"/>
<stop offset="1" style="stop-color:rgb(0%,0%,0%);stop-opacity:0;"/>
</radialGradient>
<linearGradient id="linear0" gradientUnits="userSpaceOnUse" x1="255.322968" y1="228.178589" x2="255.323044" y2="254.666656" gradientTransform="matrix(0.400801,0,0,0.074923,-78.518994,24.955063)">
<stop offset="0" style="stop-color:rgb(0%,0%,0%);stop-opacity:0.27451;"/>
<stop offset="1" style="stop-color:rgb(0%,0%,0%);stop-opacity:0;"/>
</linearGradient>
<linearGradient id="linear1" gradientUnits="userSpaceOnUse" x1="254" y1="233.5" x2="254" y2="21.833334" gradientTransform="matrix(0.093759,0,0,0.093759,0,20.158175)">
<stop offset="0" style="stop-color:rgb(32.941177%,43.137255%,47.843137%);stop-opacity:1;"/>
<stop offset="1" style="stop-color:rgb(37.64706%,49.019608%,54.509807%);stop-opacity:1;"/>
</linearGradient>
<linearGradient id="linear2" gradientUnits="userSpaceOnUse" x1="960" y1="1695.118164" x2="960" y2="175.118118" gradientTransform="matrix(0.0248071,0,0,0.0248071,0,0.00000000000000282)">
<stop offset="0" style="stop-color:rgb(74.117649%,74.117649%,74.117649%);stop-opacity:1;"/>
<stop offset="1" style="stop-color:rgb(93.333334%,93.333334%,93.333334%);stop-opacity:1;"/>
</linearGradient>
<linearGradient id="linear3" gradientUnits="userSpaceOnUse" x1="254" y1="233.5" x2="254" y2="-168.666656" gradientTransform="matrix(0.093759,0,0,0.093759,0,20.158175)">
<stop offset="0" style="stop-color:rgb(61.176473%,80.000001%,39.607844%);stop-opacity:1;"/>
<stop offset="1" style="stop-color:rgb(68.235296%,83.529413%,50.588238%);stop-opacity:1;"/>
</linearGradient>
</defs>
<g id="surface1">
<path style=" stroke:none;fill-rule:nonzero;fill:url(#radial0);" d="M 33.738281 42.050781 L 37.707031 42.050781 L 37.707031 40.066406 L 33.738281 40.066406 Z M 33.738281 42.050781 "/>
<path style=" stroke:none;fill-rule:nonzero;fill:url(#radial1);" d="M 13.890625 42.050781 L 9.921875 42.050781 L 9.921875 44.035156 L 13.890625 44.035156 Z M 13.890625 42.050781 "/>
<path style=" stroke:none;fill-rule:nonzero;fill:url(#radial2);" d="M 13.890625 42.050781 L 9.921875 42.050781 L 9.921875 40.066406 L 13.890625 40.066406 Z M 13.890625 42.050781 "/>
<path style=" stroke:none;fill-rule:nonzero;fill:url(#radial3);" d="M 33.738281 42.050781 L 37.707031 42.050781 L 37.707031 44.035156 L 33.738281 44.035156 Z M 33.738281 42.050781 "/>
<path style=" stroke:none;fill-rule:nonzero;fill:url(#linear0);" d="M 13.890625 42.054688 L 33.738281 42.054688 L 33.738281 44.035156 L 13.890625 44.035156 Z M 13.890625 42.054688 "/>
<path style=" stroke:none;fill-rule:nonzero;fill:url(#linear1);" d="M 11.90625 22.207031 L 35.722656 22.207031 C 36.816406 22.207031 37.707031 23.09375 37.707031 24.191406 L 37.707031 40.066406 C 37.707031 41.164062 36.816406 42.050781 35.722656 42.050781 L 11.90625 42.050781 C 10.8125 42.050781 9.921875 41.164062 9.921875 40.066406 L 9.921875 24.191406 C 9.921875 23.09375 10.8125 22.207031 11.90625 22.207031 Z M 11.90625 22.207031 "/>
<path style=" stroke:none;fill-rule:nonzero;fill:url(#linear2);" d="M 23.816406 4.34375 C 17.769531 4.34375 12.898438 9.210938 12.898438 15.257812 L 12.898438 22.207031 L 15.875 22.207031 L 15.875 15.257812 C 15.875 10.863281 19.417969 7.320312 23.816406 7.320312 C 28.210938 7.320312 31.753906 10.863281 31.753906 15.257812 L 31.753906 22.207031 L 34.730469 22.207031 L 34.730469 15.257812 C 34.730469 9.210938 29.863281 4.34375 23.816406 4.34375 Z M 23.816406 4.34375 "/>
<path style=" stroke:none;fill-rule:nonzero;fill:rgb(81.176472%,81.176472%,81.176472%);fill-opacity:1;" d="M 23.816406 4.34375 C 17.769531 4.34375 12.898438 9.210938 12.898438 15.257812 L 12.898438 22.207031 L 15.875 22.207031 L 15.875 15.257812 C 15.875 10.863281 19.417969 7.320312 23.816406 7.320312 C 28.210938 7.320312 31.753906 10.863281 31.753906 15.257812 L 31.753906 22.207031 L 34.730469 22.207031 L 34.730469 15.257812 C 34.730469 9.210938 29.863281 4.34375 23.816406 4.34375 Z M 23.816406 4.34375 "/>
<path style=" stroke:none;fill-rule:nonzero;fill:rgb(100%,100%,100%);fill-opacity:0.784314;" d="M 23.816406 4.34375 C 17.769531 4.34375 12.898438 9.210938 12.898438 15.257812 L 12.898438 15.753906 C 12.898438 9.707031 17.769531 4.839844 23.816406 4.839844 C 29.863281 4.839844 34.730469 9.707031 34.730469 15.753906 L 34.730469 15.257812 C 34.730469 9.210938 29.863281 4.34375 23.816406 4.34375 Z M 23.816406 4.34375 "/>
<path style=" stroke:none;fill-rule:nonzero;fill:rgb(0%,0%,0%);fill-opacity:0.235294;" d="M 23.816406 6.824219 C 19.417969 6.824219 15.875 10.367188 15.875 14.761719 L 15.875 15.257812 C 15.875 10.863281 19.417969 7.320312 23.816406 7.320312 C 28.210938 7.320312 31.753906 10.863281 31.753906 15.257812 L 31.753906 14.761719 C 31.753906 10.367188 28.210938 6.824219 23.816406 6.824219 Z M 12.898438 21.710938 L 12.898438 22.207031 L 15.875 22.207031 L 15.875 21.710938 Z M 31.753906 21.710938 L 31.753906 22.207031 L 34.730469 22.207031 L 34.730469 21.710938 Z M 31.753906 21.710938 "/>
<path style="fill:none;stroke-width:11.338583;stroke-linecap:round;stroke-linejoin:round;stroke:rgb(12.941177%,12.941177%,12.941177%);stroke-opacity:1;stroke-miterlimit:4;" d="M 960.065849 175.101398 C 716.309586 175.101398 519.950375 371.303145 519.950375 615.059407 L 519.950375 895.190151 L 639.938923 895.190151 L 639.938923 615.059407 C 639.938923 437.910961 782.759937 295.089946 960.065849 295.089946 C 1137.214296 295.089946 1280.03531 437.910961 1280.03531 615.059407 L 1280.03531 895.190151 L 1400.023858 895.190151 L 1400.023858 615.059407 C 1400.023858 371.303145 1203.822112 175.101398 960.065849 175.101398 Z M 960.065849 175.101398 " transform="matrix(0.0248071,0,0,0.0248071,0,0)"/>
<path style=" stroke:none;fill-rule:nonzero;fill:rgb(0%,0%,0%);fill-opacity:0.235294;" d="M 11.90625 42.050781 C 10.808594 42.050781 9.921875 41.164062 9.921875 40.066406 L 9.921875 39.074219 C 9.921875 40.171875 10.808594 41.058594 11.90625 41.058594 L 35.722656 41.058594 C 36.820312 41.058594 37.707031 40.171875 37.707031 39.074219 L 37.707031 40.066406 C 37.707031 41.164062 36.820312 42.050781 35.722656 42.050781 Z M 11.90625 42.050781 "/>
<path style=" stroke:none;fill-rule:nonzero;fill:rgb(100%,100%,100%);fill-opacity:0.392157;" d="M 11.90625 22.207031 C 10.808594 22.207031 9.921875 23.089844 9.921875 24.191406 L 9.921875 25.183594 C 9.921875 24.082031 10.808594 23.199219 11.90625 23.199219 L 35.722656 23.199219 C 36.820312 23.199219 37.707031 24.082031 37.707031 25.183594 L 37.707031 24.191406 C 37.707031 23.089844 36.820312 22.207031 35.722656 22.207031 Z M 11.90625 22.207031 "/>
<path style=" stroke:none;fill-rule:nonzero;fill:rgb(12.941177%,12.941177%,12.941177%);fill-opacity:1;" d="M 11.90625 22.066406 C 10.734375 22.066406 9.78125 23.015625 9.78125 24.191406 L 9.78125 40.066406 C 9.78125 41.242188 10.734375 42.191406 11.90625 42.191406 L 35.722656 42.191406 C 36.898438 42.191406 37.847656 41.242188 37.847656 40.066406 L 37.847656 24.191406 C 37.847656 23.015625 36.898438 22.066406 35.722656 22.066406 Z M 11.90625 22.347656 L 35.722656 22.347656 C 36.746094 22.347656 37.566406 23.164062 37.566406 24.191406 L 37.566406 40.066406 C 37.566406 41.089844 36.746094 41.910156 35.722656 41.910156 L 11.90625 41.910156 C 10.882812 41.910156 10.0625 41.089844 10.0625 40.066406 L 10.0625 24.191406 C 10.0625 23.164062 10.882812 22.347656 11.90625 22.347656 Z M 11.90625 22.347656 "/>
<path style=" stroke:none;fill-rule:nonzero;fill:url(#linear3);" d="M 37.816406 15.25 C 37.164062 15.21875 36.539062 15.511719 36.148438 16.03125 L 23.558594 32.21875 L 15.214844 24.707031 C 14.691406 24.222656 13.949219 24.058594 13.269531 24.277344 C 12.59375 24.492188 12.085938 25.058594 11.941406 25.753906 C 11.792969 26.453125 12.035156 27.171875 12.570312 27.644531 L 22.492188 36.574219 C 22.902344 36.941406 23.441406 37.121094 23.988281 37.070312 C 24.535156 37.023438 25.039062 36.75 25.375 36.316406 L 39.265625 18.457031 C 39.730469 17.875 39.828125 17.085938 39.523438 16.40625 C 39.21875 15.730469 38.558594 15.28125 37.816406 15.25 Z M 37.816406 15.25 "/>
<path style=" stroke:none;fill-rule:nonzero;fill:rgb(100%,100%,100%);fill-opacity:0.392157;" d="M 37.816406 15.25 C 37.164062 15.21875 36.539062 15.511719 36.148438 16.03125 L 23.558594 32.21875 L 15.214844 24.707031 C 14.585938 24.128906 13.65625 24.019531 12.910156 24.433594 C 12.164062 24.851562 11.773438 25.699219 11.9375 26.539062 C 12.074219 25.835938 12.578125 25.261719 13.257812 25.039062 C 13.9375 24.8125 14.6875 24.976562 15.214844 25.460938 L 23.558594 32.972656 L 36.148438 16.785156 C 36.539062 16.265625 37.164062 15.972656 37.816406 16.003906 C 38.726562 16.046875 39.488281 16.707031 39.660156 17.601562 C 39.769531 17.039062 39.628906 16.453125 39.277344 16.003906 C 38.921875 15.550781 38.386719 15.273438 37.816406 15.25 Z M 37.816406 15.25 "/>
<path style=" stroke:none;fill-rule:nonzero;fill:rgb(0%,0%,0%);fill-opacity:0.235294;" d="M 36.292969 22.289062 L 25.375 36.328125 C 25.039062 36.761719 24.535156 37.035156 23.988281 37.082031 C 23.441406 37.132812 22.902344 36.949219 22.492188 36.582031 L 12.570312 27.652344 C 12.328125 27.4375 12.140625 27.167969 12.027344 26.863281 C 11.738281 27.632812 11.953125 28.5 12.570312 29.042969 L 22.492188 37.972656 C 22.902344 38.339844 23.441406 38.519531 23.988281 38.472656 C 24.535156 38.421875 25.039062 38.148438 25.375 37.71875 L 37.046875 22.710938 C 36.832031 22.519531 36.578125 22.371094 36.292969 22.289062 Z M 36.292969 22.289062 "/>
<path style="fill:none;stroke-width:3;stroke-linecap:round;stroke-linejoin:round;stroke:rgb(12.941177%,12.941177%,12.941177%);stroke-opacity:1;stroke-miterlimit:4;" d="M 403.336483 -52.348866 C 396.378814 -52.682167 389.712784 -49.557466 385.546515 -44.016328 L 251.267672 128.633851 L 162.27617 48.516502 C 156.69337 43.350329 148.777459 41.600496 141.528151 43.933606 C 134.320506 46.225054 128.904357 52.266144 127.362837 59.682103 C 125.779655 67.139724 128.362742 74.805658 134.07053 79.846844 L 239.893758 175.087748 C 244.26834 179.004041 250.017791 180.920525 255.850567 180.37891 C 261.683344 179.878958 267.057831 176.962569 270.640822 172.338011 L 418.793341 -18.143799 C 423.7512 -24.351539 424.792768 -32.767402 421.543078 -40.01671 C 418.293388 -47.224355 411.252394 -52.015564 403.336483 -52.348866 Z M 403.336483 -52.348866 " transform="matrix(0.093759,0,0,0.093759,0,20.158175)"/>
</g>
</svg>
